X:1
T:Bonnie Ythanside
M:2/4
L:1/8
K:C
 d| ee ee| d3/2 e/2 A3/2 A/2| dd BG| G3/2 A/2 E| z/2 E/2| E/2A/2 AB G|\
 AAB/2-d/2 d/2d/2| ee de| A3||
